public/assets/Sponsors/past/bugsee.svg

<svg width="166" height="126" viewBox="0 0 166 126" fill="none" xmlns="http://www.w3.org/2000/svg">
<path d="M115 39C122.732 39 129 33.4036 129 26.5C129 19.5964 122.732 14 115 14C107.268 14 101 19.5964 101 26.5C101 33.4036 107.268 39 115 39Z" fill="white"/>
<path fill-rule="evenodd" clip-rule="evenodd" d="M116.978 6.68643C118.475 7.30211 119.952 7.95931 121.405 8.65658C123.241 6.77275 125.736 5.70135 128.321 5.61498C129.719 7.84509 130.22 10.5687 129.638 13.1859C146.899 23.9704 159.969 40.7786 165.87 60.6465L159.45 60.6465C154.079 49.1037 142.33 41.0962 128.701 41.0962C109.997 41.0962 94.8354 56.1763 94.8354 74.7786C94.8354 78.1737 95.3404 81.4514 96.2799 84.5416H84.9658V74.1194H81.6096V84.5416H71.4166V74.1194H57.992V84.5416H47.7959V74.1194H44.4397V84.5416H34.2436V74.1194H27.5313V84.5416H0C0 38.0359 37.9052 0.335644 84.6636 0.335644C92.9603 0.335644 100.978 1.52261 108.555 3.73512C109.657 2.10641 111.215 0.829488 113.026 0.0641785C115.138 1.65076 116.585 4.02389 116.978 6.68643V6.68643ZM114.804 34.3549C119.48 34.3549 123.27 30.5848 123.27 25.9343C123.27 21.2837 119.48 17.5137 114.804 17.5137C110.128 17.5137 106.337 21.2837 106.337 25.9343C106.337 30.5848 110.128 34.3549 114.804 34.3549ZM117.852 31.9971C115.981 31.9971 114.465 30.4891 114.465 28.6288C114.465 26.7686 115.981 25.2606 117.852 25.2606C119.722 25.2606 121.238 26.7686 121.238 28.6288C121.238 30.4891 119.722 31.9971 117.852 31.9971Z" fill="#FB5252"/>
<path fill-rule="evenodd" clip-rule="evenodd" d="M0.324219 125V92.2969H11.5322C13.2992 92.2969 14.8864 92.4728 16.2939 92.8247C17.7015 93.1766 18.8919 93.7119 19.8652 94.4307C20.8385 95.1494 21.5835 96.0666 22.1001 97.1821C22.6167 98.2977 22.875 99.6191 22.875 101.146C22.875 102.644 22.4707 103.992 21.6621 105.189C20.8535 106.387 19.6706 107.316 18.1133 107.975C19.0566 108.229 19.8765 108.6 20.5728 109.086C21.269 109.573 21.8455 110.146 22.3022 110.805C22.759 111.464 23.0996 112.19 23.3242 112.983C23.5488 113.777 23.6611 114.601 23.6611 115.454C23.6611 117.026 23.4028 118.408 22.8862 119.598C22.3696 120.789 21.6209 121.784 20.6401 122.585C19.6593 123.387 18.4689 123.989 17.0688 124.394C15.6688 124.798 14.0853 125 12.3184 125H0.324219ZM6.00684 110.243V120.463H12.3184C13.2467 120.463 14.0666 120.343 14.7778 120.104C15.4891 119.864 16.0843 119.523 16.5635 119.082C17.0426 118.64 17.402 118.112 17.6416 117.498C17.8812 116.884 18.001 116.203 18.001 115.454C18.001 113.837 17.5742 112.564 16.7207 111.636C15.8672 110.707 14.4821 110.243 12.5654 110.243H6.00684ZM6.00684 106.065H11.5771C13.3441 106.065 14.7254 105.665 15.7212 104.864C16.717 104.063 17.2148 102.928 17.2148 101.461C17.2148 99.8437 16.7544 98.6758 15.8335 97.957C14.9126 97.2383 13.4789 96.8789 11.5322 96.8789H6.00684V106.065ZM53.2646 92.2969V114.174C53.2646 116.046 52.9465 117.685 52.3101 119.093C51.6737 120.5 50.8014 121.676 49.6934 122.619C48.5853 123.563 47.29 124.27 45.8076 124.742C44.3252 125.213 42.738 125.449 41.0459 125.449C39.2939 125.449 37.673 125.213 36.1831 124.742C34.6932 124.27 33.4017 123.563 32.3086 122.619C31.2155 121.676 30.362 120.5 29.748 119.093C29.1341 117.685 28.8271 116.046 28.8271 114.174V92.2969H34.4873V114.174C34.4873 115.342 34.6408 116.349 34.9478 117.195C35.2547 118.041 35.6927 118.741 36.2617 119.295C36.8307 119.849 37.5195 120.257 38.3281 120.519C39.1367 120.781 40.0426 120.912 41.0459 120.912C42.0492 120.912 42.9588 120.781 43.7749 120.519C44.591 120.257 45.2798 119.849 45.8413 119.295C46.4028 118.741 46.8371 118.041 47.144 117.195C47.451 116.349 47.6045 115.342 47.6045 114.174V92.2969H53.2646ZM84.3955 120.755C84.0511 121.204 83.5719 121.702 82.958 122.249C82.3441 122.795 81.5542 123.304 80.5884 123.776C79.6226 124.248 78.4621 124.644 77.1069 124.966C75.7518 125.288 74.1608 125.449 72.334 125.449C70.2825 125.449 68.3996 125.097 66.6851 124.394C64.9705 123.69 63.4994 122.672 62.2715 121.339C61.0436 120.006 60.089 118.367 59.4077 116.42C58.7264 114.473 58.3857 112.25 58.3857 109.749V107.593C58.3857 105.107 58.6927 102.887 59.3066 100.933C59.9206 98.979 60.804 97.3281 61.957 95.9805C63.11 94.6328 64.5176 93.6071 66.1797 92.9033C67.8418 92.1995 69.7285 91.8477 71.8398 91.8477C73.8314 91.8477 75.5684 92.106 77.0508 92.6226C78.5332 93.1392 79.7835 93.8616 80.8018 94.79C81.82 95.7184 82.6211 96.8227 83.2051 98.103C83.7891 99.3833 84.1784 100.787 84.373 102.314H78.8027C78.668 101.461 78.4434 100.675 78.1289 99.9561C77.8145 99.2373 77.384 98.6159 76.8374 98.0918C76.2909 97.5677 75.617 97.1559 74.8159 96.8564C74.0148 96.557 73.0602 96.4072 71.9521 96.4072C70.6195 96.4072 69.4627 96.6543 68.4819 97.1484C67.5011 97.6426 66.6851 98.3651 66.0337 99.3159C65.3823 100.267 64.8957 101.435 64.5737 102.82C64.2518 104.205 64.0908 105.781 64.0908 107.548V109.749C64.0908 111.546 64.2855 113.137 64.6748 114.522C65.0641 115.907 65.6219 117.071 66.3481 118.015C67.0744 118.958 67.9578 119.677 68.9985 120.171C70.0392 120.665 71.2184 120.912 72.5361 120.912C73.5094 120.912 74.3442 120.848 75.0405 120.721C75.7368 120.594 76.3245 120.433 76.8037 120.238C77.2829 120.044 77.6759 119.83 77.9829 119.598C78.2899 119.366 78.5407 119.145 78.7354 118.936V112.534H71.9971V108.222H84.3955V120.755ZM107.732 116.577C107.732 115.918 107.635 115.331 107.44 114.814C107.246 114.297 106.89 113.822 106.374 113.388C105.857 112.953 105.146 112.538 104.24 112.141C103.334 111.744 102.17 111.329 100.747 110.895C99.1898 110.43 97.7523 109.899 96.4346 109.3C95.1169 108.701 93.9826 108.005 93.0317 107.211C92.0809 106.417 91.3359 105.504 90.7969 104.471C90.2578 103.437 89.9883 102.255 89.9883 100.922C89.9883 99.6042 90.269 98.3913 90.8306 97.2832C91.3921 96.1751 92.182 95.2168 93.2002 94.4082C94.2184 93.5996 95.4388 92.9707 96.8613 92.5215C98.2839 92.0723 99.8561 91.8477 101.578 91.8477C103.42 91.8477 105.075 92.1134 106.542 92.645C108.009 93.1766 109.249 93.8991 110.259 94.8125C111.27 95.7259 112.045 96.7853 112.584 97.9907C113.123 99.1961 113.393 100.48 113.393 101.843H107.732C107.732 101.049 107.609 100.319 107.362 99.6528C107.115 98.9865 106.737 98.41 106.228 97.9233C105.718 97.4367 105.075 97.0586 104.296 96.7891C103.517 96.5195 102.596 96.3848 101.533 96.3848C100.53 96.3848 99.6615 96.4971 98.9277 96.7217C98.194 96.9463 97.5838 97.2607 97.0972 97.665C96.6105 98.0693 96.2511 98.5485 96.019 99.1025C95.7869 99.6566 95.6709 100.256 95.6709 100.899C95.6709 102.112 96.2436 103.123 97.3892 103.932C98.5347 104.74 100.283 105.489 102.634 106.178C104.476 106.717 106.07 107.316 107.418 107.975C108.766 108.633 109.885 109.378 110.776 110.209C111.667 111.041 112.329 111.976 112.764 113.017C113.198 114.058 113.415 115.229 113.415 116.532C113.415 117.91 113.142 119.149 112.595 120.25C112.049 121.35 111.27 122.286 110.259 123.057C109.249 123.828 108.024 124.42 106.587 124.832C105.149 125.243 103.547 125.449 101.78 125.449C100.208 125.449 98.6582 125.236 97.1309 124.809C95.6035 124.382 94.2334 123.738 93.0205 122.877C91.8076 122.016 90.8306 120.942 90.0894 119.654C89.3481 118.367 88.9775 116.854 88.9775 115.117H94.6602C94.6602 116.15 94.8436 117.038 95.2104 117.779C95.5773 118.52 96.0789 119.126 96.7153 119.598C97.3517 120.07 98.1042 120.414 98.9727 120.631C99.8412 120.848 100.777 120.957 101.78 120.957C103.757 120.957 105.243 120.556 106.239 119.755C107.235 118.954 107.732 117.895 107.732 116.577ZM137.516 110.4H124.084V120.463H139.784V125H118.401V92.2969H139.627V96.8789H124.084V105.908H137.516V110.4ZM163.525 110.4H150.094V120.463H165.794V125H144.411V92.2969H165.637V96.8789H150.094V105.908H163.525V110.4Z" fill="white"/>
</svg>

<svg width="166" height="126" fill="none" xmlns="http://www.w3.org/2000/svg"><path d="M115 39c7.732 0 14-5.596 14-12.5S122.732 14 115 14s-14 5.596-14 12.5S107.268 39 115 39Z" fill="#fff"/><path fill-rule="evenodd" clip-rule="evenodd" d="M116.978 6.686a84.692 84.692 0 0 1 4.427 1.97 10.138 10.138 0 0 1 6.916-3.041 10.137 10.137 0 0 1 1.317 7.57c17.261 10.785 30.331 27.594 36.232 47.462h-6.42a33.88 33.88 0 0 0-30.749-19.55c-18.704 0-33.866 15.08-33.866 33.682a33.5 33.5 0 0 0 1.445 9.763H84.966V74.119H81.61v10.423H71.417V74.119H57.992v10.423H47.796V74.119H44.44v10.423H34.244V74.119H27.53v10.423H0C0 38.036 37.905.336 84.664.336a85.117 85.117 0 0 1 23.891 3.4 10.194 10.194 0 0 1 4.471-3.672 10.158 10.158 0 0 1 3.952 6.622Zm-2.174 27.669c4.676 0 8.466-3.77 8.466-8.42 0-4.651-3.79-8.421-8.466-8.421-4.676 0-8.467 3.77-8.467 8.42s3.791 8.42 8.467 8.42Zm3.048-2.358a3.377 3.377 0 0 1-3.387-3.368 3.377 3.377 0 0 1 3.387-3.368 3.377 3.377 0 0 1 3.386 3.368 3.377 3.377 0 0 1-3.386 3.368Z" fill="#FB5252"/><path fill-rule="evenodd" clip-rule="evenodd" d="M.324 125V92.297h11.208c1.767 0 3.354.176 4.762.528 1.407.352 2.598.887 3.571 1.606a7.04 7.04 0 0 1 2.235 2.751c.517 1.116.775 2.437.775 3.964 0 1.498-.404 2.846-1.213 4.043-.808 1.198-1.991 2.127-3.549 2.786.944.254 1.764.625 2.46 1.111a6.868 6.868 0 0 1 1.73 1.719 7.272 7.272 0 0 1 1.021 2.178 9.02 9.02 0 0 1 .337 2.471c0 1.572-.258 2.954-.775 4.144a7.803 7.803 0 0 1-2.246 2.987c-.98.802-2.171 1.404-3.571 1.809-1.4.404-2.984.606-4.75.606H.323Zm5.683-14.757v10.22h6.311c.929 0 1.749-.12 2.46-.359.711-.24 1.306-.581 1.786-1.022.479-.442.838-.97 1.078-1.584.24-.614.359-1.295.359-2.044 0-1.617-.427-2.89-1.28-3.818-.854-.929-2.239-1.393-4.156-1.393H6.007Zm0-4.178h5.57c1.767 0 3.148-.4 4.144-1.201s1.494-1.936 1.494-3.403c0-1.617-.46-2.785-1.381-3.504-.921-.719-2.355-1.078-4.302-1.078H6.007v9.186Zm47.258-13.768v21.877c0 1.872-.319 3.511-.955 4.919-.636 1.407-1.509 2.583-2.617 3.526-1.108.944-2.403 1.651-3.885 2.123-1.483.471-3.07.707-4.762.707-1.752 0-3.373-.236-4.863-.707-1.49-.472-2.781-1.179-3.874-2.123-1.093-.943-1.947-2.119-2.561-3.526-.614-1.408-.92-3.047-.92-4.919V92.297h5.66v21.877c0 1.168.153 2.175.46 3.021.307.846.745 1.546 1.314 2.1a5.218 5.218 0 0 0 2.066 1.224c.809.262 1.715.393 2.718.393s1.913-.131 2.729-.393c.816-.262 1.505-.67 2.066-1.224.562-.554.996-1.254 1.303-2.1.307-.846.46-1.853.46-3.021V92.297h5.66Zm31.13 28.458c-.344.449-.823.947-1.437 1.494-.614.546-1.404 1.055-2.37 1.527-.965.472-2.126.868-3.481 1.19-1.355.322-2.946.483-4.773.483-2.052 0-3.934-.352-5.649-1.055a12.242 12.242 0 0 1-4.413-3.055c-1.228-1.333-2.183-2.972-2.864-4.919-.682-1.947-1.022-4.17-1.022-6.671v-2.156c0-2.486.307-4.706.92-6.66.615-1.954 1.498-3.605 2.651-4.953a11.248 11.248 0 0 1 4.223-3.077c1.662-.704 3.548-1.055 5.66-1.055 1.991 0 3.728.258 5.21.775 1.483.516 2.734 1.239 3.752 2.167a10.11 10.11 0 0 1 2.403 3.313c.584 1.28.973 2.684 1.168 4.211h-5.57a9.592 9.592 0 0 0-.674-2.358 5.738 5.738 0 0 0-1.292-1.864c-.546-.524-1.22-.936-2.021-1.236-.801-.299-1.756-.449-2.864-.449-1.332 0-2.49.247-3.47.741a6.474 6.474 0 0 0-2.448 2.168c-.652.951-1.138 2.119-1.46 3.504-.322 1.385-.483 2.961-.483 4.728v2.201c0 1.797.195 3.388.584 4.773.39 1.385.947 2.549 1.673 3.493a7.22 7.22 0 0 0 2.65 2.156c1.041.494 2.22.741 3.538.741.973 0 1.808-.064 2.504-.191.697-.127 1.284-.288 1.764-.483a5.189 5.189 0 0 0 1.179-.64c.307-.232.558-.453.752-.662v-6.402h-6.738v-4.312h12.398v12.533Zm23.337-4.178c0-.659-.097-1.246-.292-1.763-.194-.517-.55-.992-1.066-1.426-.517-.435-1.228-.85-2.134-1.247-.906-.397-2.07-.812-3.493-1.246a33.767 33.767 0 0 1-4.312-1.595c-1.318-.599-2.452-1.295-3.403-2.089a8.95 8.95 0 0 1-2.235-2.74c-.54-1.034-.809-2.216-.809-3.549 0-1.318.281-2.53.843-3.639a8.623 8.623 0 0 1 2.37-2.875c1.017-.808 2.238-1.437 3.66-1.886 1.423-.45 2.995-.674 4.717-.674 1.842 0 3.497.265 4.964.797 1.467.532 2.707 1.254 3.717 2.168a9.33 9.33 0 0 1 3.134 7.03h-5.661c0-.794-.123-1.524-.37-2.19a4.549 4.549 0 0 0-1.134-1.73c-.51-.486-1.153-.864-1.932-1.134-.779-.27-1.7-.404-2.763-.404-1.003 0-1.871.112-2.605.337-.734.224-1.344.539-1.83.943a3.722 3.722 0 0 0-1.079 1.438 4.605 4.605 0 0 0-.348 1.796c0 1.213.573 2.224 1.718 3.033 1.146.808 2.894 1.557 5.245 2.246 1.842.539 3.436 1.138 4.784 1.797 1.348.658 2.467 1.403 3.358 2.234.891.832 1.553 1.767 1.988 2.808.434 1.041.651 2.212.651 3.515 0 1.378-.273 2.617-.82 3.718a7.934 7.934 0 0 1-2.336 2.807c-1.01.771-2.235 1.363-3.672 1.775-1.438.411-3.04.617-4.807.617-1.572 0-3.122-.213-4.65-.64-1.526-.427-2.897-1.071-4.11-1.932a10.062 10.062 0 0 1-2.93-3.223c-.742-1.287-1.112-2.8-1.112-4.537h5.682c0 1.033.184 1.921.55 2.662a4.97 4.97 0 0 0 1.505 1.819c.637.472 1.39.816 2.258 1.033a11.55 11.55 0 0 0 2.807.326c1.977 0 3.463-.401 4.459-1.202.996-.801 1.493-1.86 1.493-3.178Zm29.784-6.177h-13.432v10.063h15.7V125h-21.383V92.297h21.226v4.582h-15.543v9.029h13.432v4.492Zm26.009 0h-13.431v10.063h15.7V125h-21.383V92.297h21.226v4.582h-15.543v9.029h13.431v4.492Z" fill="#fff"/></svg>
